X:1
T:Think of Me
T:Think of Me 
T:The Chase
T:arr. Abigail Reardon
C:arr. Abigail Reardon
%%score { 1 | 2 }
L:1/8
Q:1/4=90
M:4/4
K:G
V:1 treble nm="Piano" snm="Pno."
V:2 bass 
V:1
 z8 | z4!8vb(!!8vb(! [D,G,A,]<[D,G,B,] [D,G,C]<[D,G,A,]!8vb)!!8vb)! |!8vb(! [D,G,B,]2 z2 z4!8vb)! | %3
 z4!8vb(!!8vb(! [D,G,A,]<[D,G,B,] [D,G,C]<[D,G,A,]!8vb)!!8vb)! |!8vb(! [D,G,B,]2 z2 z4!8vb)! | %5
 z [DGB][DGB][DGB] [DGB][DGA] [DG][DGA]/[DGB]/- | [DGB] z z2 [dgb]2 [dfa]3/2b/4a/4 | %7
 [eg] z/ [B,E]/ [B,EG][B,E] [B,EG]/[B,E][B,EG][EGA]/[EGB] | [DGB]2 z2 z4 | %9
 z [DGB][DGB][DGB] [DGB][DGA] [DG][DGA]/[DGB]/- | [DGB][DGA]<[B,DG][B,DF] [B,DG]3/2[B,DF]>GF/ | %11
 [G,CE] z [CEG][CE] [CEG]/[CE][CEG][EGA]/[GB] | [DGB]/A/[DG] z2 [Bdg]/a/[Bdg] z2 | %13
 z z z [GBd]/[GBde]/ [GBde][GBd]/[GB][GB]/[GB] | [CEGB]2 [CEGA]2 [CEG]2 G/A/B | %15
 [DGB]2 [DGA]2 [DG]2 G/A/B | [DGA]3 [DG]/ [DFA]2 z/ [DFB]/A/[DG] | %17
 z z z [GBd]/[GBde]/ [GBde][GBd]/[GB][GB]/[GB] | [CEGB]2 [CEGA]2 [CEG]2 G/A/B | %19
 [DGB]2 [DGA]2 [DG]2 G/A/B | [DGA]3 [DG]/ [DFA]2 z/ z2 | [B,EG]2 [EGA]2 [EGB]2 [EGA][EG] | %22
 z2 [EG]/[EGA]/[EGB]/ [DGB]2 z/ z2 | [B,EG]2 [EGA]2 [EGB]2 [EGA]/B/4A/4[EG] | %24
 z2 [EG]/[EGA]/[EGB]/ [DGB]2 z/ z2 | (3[EGB][EGB][EGB] (3[EGB][EGA][EG] [B,EG]>[EGA] [EGB]2 | %26
 [G,CE]/[G,CD]/ z/ [G,CD]/ [CEG][EGA]/[EGB]/ [DGB]2 z2 | %27
 (3[B,EG][B,EG][B,EG] [A,DF]>[G,CD] [G,CD]/[G,CE] [G,CD]2 z/ | %28
 (3[E,G,][E,G,][E,G,] (3[E,G,B,][E,G,A,][E,G,] [D,G,]2 z2 | %29
[Q:1/4=75] (3[B,EG][B,EG][B,EG] [A,DF]>[G,CD] [G,CD]/[G,CE] [G,CD]2 z/ | %30
 (3[E,G,][E,G,][E,G,] (3[E,G,B,][E,G,A,][E,G,] [D,G,]2 b/d'/!fermata![bd'g'] |] %31
V:2
 [G,,G,]3/2[G,,G,]3/2[G,,G,] [G,,G,]3/2[G,,G,]3/2[G,,G,] | %1
 [G,,G,]3/2[G,,G,]3/2[G,,G,] [G,,G,]3/2[G,,G,]3/2[G,,G,] | %2
 [G,,G,]3/2[G,,G,]3/2[G,,G,] [G,,G,]3/2[G,,G,]3/2[G,,G,] | %3
 [G,,G,]3/2[G,,G,]3/2[G,,G,] [G,,G,]3/2[G,,G,]3/2[G,,G,] | %4
 [G,,G,]3/2[G,,G,]3/2[G,,G,] [G,,G,]3/2[G,,G,]3/2[G,,G,] | %5
 [G,,G,]3/2[G,,G,]3/2[G,,G,] [G,,G,]3/2[G,,G,]3/2[G,,G,] | %6
 [G,,G,]3/2[G,,G,]3/2[G,,G,] [G,,G,]2 [F,,F,]2 | %7
 [E,,E,]3/2[E,,E,]3/2[E,,E,] [E,,E,]3/2[E,,E,]3/2[E,,E,] | %8
 [G,,G,]3/2[G,,G,]3/2[G,,G,] [G,,G,]3/2[G,,G,]3/2[G,,G,] | %9
 [G,,G,]3/2[G,,G,]3/2[G,,G,] [G,,G,]3/2[G,,G,]3/2[G,,G,] | %10
 [G,,G,]3/2[G,,G,]3/2[G,,G,] [G,,G,]2 [F,,F,]2 | %11
 [C,,C,]3/2[C,,C,]3/2[C,,C,] [C,,C,]3/2[C,,C,]3/2[C,,C,] | %12
 [G,,G,]3/2[G,,G,]3/2[G,,G,] [G,,G,]3/2[G,,G,]3/2[G,,G,] | %13
 [E,,E,]3/2[E,,E,]3/2[E,,E,] [E,,E,]3/2[E,,E,]3/2[E,,E,] | %14
 [C,,C,]3/2[C,,C,]3/2[C,,C,] [C,,C,]3/2[C,,C,]3/2[C,,C,] | %15
 [G,,G,]3/2[G,,G,]3/2[G,,G,] [G,,G,]3/2[G,,G,]3/2[G,,G,] | %16
 [D,,D,]3/2[D,,D,]3/2[D,,D,] [D,,D,]3/2[D,,D,]3/2[D,,D,] | %17
 [E,,E,]3/2[E,,E,]3/2[E,,E,] [E,,E,]3/2[E,,E,]3/2[E,,E,] | %18
 [C,,C,]3/2[C,,C,]3/2[C,,C,] [C,,C,]3/2[C,,C,]3/2[C,,C,] | %19
 [G,,G,]3/2[G,,G,]3/2[G,,G,] [G,,G,]3/2[G,,G,]3/2[G,,G,] | %20
 [D,,D,]3/2[D,,D,]3/2[D,,D,] [D,,D,]3/2[D,,D,]3/2[D,,D,] | %21
 [E,,,E,,]3/2[E,,,E,,]3/2[E,,,E,,] [E,,,E,,]3/2[E,,,E,,]3/2[E,,,E,,] | %22
 [C,,C,]3/2[C,,C,]3/2[C,,C,] [G,,,G,,]3/2[G,,,G,,]3/2[G,,,G,,] | %23
 [E,,,E,,]3/2[E,,,E,,]3/2[E,,,E,,] [E,,,E,,]3/2[E,,,E,,]3/2[E,,,E,,] | %24
 [C,,C,]3/2[C,,C,]3/2[C,,C,] [G,,,G,,]3/2[G,,,G,,]3/2[G,,,G,,] | %25
 [E,,,E,,]3/2[E,,,E,,]3/2[E,,,E,,] [E,,,E,,]3/2[E,,,E,,]3/2[E,,,E,,] | %26
 [C,,C,]3/2[C,,C,]3/2[C,,C,] [G,,,G,,]3/2[G,,,G,,]3/2[G,,,G,,] | [E,,,E,,]2 [D,,,D,,]2 [C,,,C,,]4 | %28
 [C,,,C,,]4 [G,,,G,,]3/2[G,,,G,,]3/2[G,,,G,,] | [E,,,E,,]2 [D,,,D,,]2 [C,,,C,,]4 | %30
 [C,,,C,,]4 !fermata![G,,,G,,]4 |] %31

